Adwaita/scalable/devices/modem-symbolic.svg

<?xml version="1.0" encoding="UTF-8"?>
<svg height="16px" viewBox="0 0 16 16" width="16px" xmlns="http://www.w3.org/2000/svg">
    <g fill="#2e3434">
        <path d="m 7.496094 0 c -3.898438 0.00390625 -7.160156 3.011719 -7.4726565 6.898438 l -0.078125 0.996093 l 1.0546875 0.085938 v 0.019531 h 0.238281 l 0.699219 0.054688 l 0.003906 -0.054688 h 11.117188 l 0.003906 0.050781 l 0.625 -0.050781 h 0.3125 v -0.023438 l 1.054688 -0.089843 l -0.078126 -0.996094 c -0.320312 -3.886719 -3.582031 -6.89453125 -7.480468 -6.890625 z m -0.496094 2.023438 v 2.933593 c -0.609375 -0.089843 -1.25 -0.347656 -1.929688 -0.808593 c 0.316407 -0.734376 0.804688 -1.449219 1.585938 -2.085938 c 0.113281 -0.015625 0.226562 -0.027344 0.34375 -0.039062 z m 1 0 c 0.132812 0.011718 0.261719 0.03125 0.394531 0.050781 c 0.773438 0.632812 1.257813 1.339843 1.570313 2.070312 c -0.660156 0.453125 -1.3125 0.730469 -1.964844 0.820313 z m -3.320312 0.75 c -0.160157 0.246093 -0.300782 0.496093 -0.421876 0.75 c -0.09375 -0.082032 -0.1875 -0.164063 -0.28125 -0.253907 c 0.21875 -0.183593 0.457032 -0.347656 0.703126 -0.496093 z m 5.695312 0.039062 c 0.230469 0.136719 0.449219 0.292969 0.652344 0.460938 c -0.085938 0.082031 -0.171875 0.160156 -0.257813 0.238281 c -0.113281 -0.238281 -0.242187 -0.472657 -0.394531 -0.699219 z m -7.105469 1.167969 c 0.203125 0.1875 0.410157 0.363281 0.613281 0.527343 c -0.265624 0.875 -0.34375 1.730469 -0.371093 2.492188 h -1.488281 c 0.105468 -1.152344 0.554687 -2.191406 1.246093 -3.019531 z m 8.464844 0.003906 c 0.6875 0.828125 1.136719 1.867187 1.242187 3.015625 h -1.457031 c -0.023437 -0.761719 -0.101562 -1.621094 -0.363281 -2.5 c 0.191406 -0.160156 0.386719 -0.332031 0.578125 -0.515625 z m -6.984375 1.140625 c 0.757812 0.472656 1.507812 0.753906 2.25 0.84375 v 1.03125 h -2.484375 c 0.023437 -0.601562 0.078125 -1.238281 0.234375 -1.875 z m 5.539062 0.007812 c 0.152344 0.632813 0.210938 1.269532 0.230469 1.867188 h -2.519531 v -1.027344 c 0.796875 -0.085937 1.558594 -0.378906 2.289062 -0.839844 z m 0 0"/>
        <path d="m 2.375 8.992188 c -1.21875 0.011718 -2.207031 1.175781 -1.957031 2.402343 l 0.011719 0.0625 l 0.019531 0.054688 c 2.050781 4.679687 12.050781 4.691406 14.097656 0 l 0.019531 -0.054688 l 0.011719 -0.0625 c 0.265625 -1.28125 -0.820313 -2.492187 -2.113281 -2.394531 h -1.464844 c -1.09375 0 -2 0.90625 -2 2 v 1.792969 l -0.078125 0.019531 c -0.929687 0.25 -1.914063 0.25 -2.847656 0 l -0.074219 -0.019531 v -1.792969 c 0 -1.09375 -0.90625 -2 -2 -2 h -1.480469 c -0.046875 -0.003906 -0.097656 -0.007812 -0.144531 -0.007812 z m 0.054688 2.007812 h 1.570312 v 1.308594 c -0.722656 -0.136719 -1.296875 -0.636719 -1.574219 -1.308594 z m 10.144531 0 c -0.277344 0.671875 -0.851563 1.171875 -1.574219 1.304688 v -1.304688 z m 0 0"/>
    </g>
</svg>

<?xml version="1.0" encoding="UTF-8"?>
<svg xmlns="http://www.w3.org/2000/svg" xmlns:xlink="http://www.w3.org/1999/xlink" width="16px" height="16px" viewBox="0 0 16 16" version="1.1">
<g id="surface87103">
<path style="fill:none;stroke-width:1;stroke-linecap:butt;stroke-linejoin:miter;stroke:rgb(0%,0%,0%);stroke-opacity:1;stroke-miterlimit:4;" d="M 27.323624 277.003906 C 23.999405 278.921875 23.999405 282 23.999405 284 " transform="matrix(1,0,0,1,-19.999405,-256)"/>
<path style="fill:none;stroke-width:1;stroke-linecap:butt;stroke-linejoin:miter;stroke:rgb(0%,0%,0%);stroke-opacity:1;stroke-miterlimit:4;" d="M 27.714249 277.003906 C 31.034561 278.921875 31.034561 282 31.034561 284 " transform="matrix(1,0,0,1,-19.999405,-256)"/>
<path style=" stroke:none;fill-rule:nonzero;fill:rgb(18.039216%,20.392157%,20.392157%);fill-opacity:1;" d="M 7.496094 0 C 3.597656 0.00390625 0.335938 3.011719 0.0234375 6.898438 L -0.0546875 7.894531 L 1 7.980469 L 1 8 L 1.238281 8 L 1.9375 8.054688 L 1.941406 8 L 13.058594 8 L 13.0625 8.050781 L 13.6875 8 L 14 8 L 14 7.976562 L 15.054688 7.886719 L 14.976562 6.890625 C 14.65625 3.003906 11.394531 -0.00390625 7.496094 0 Z M 7 2.023438 L 7 4.957031 C 6.390625 4.867188 5.75 4.609375 5.070312 4.148438 C 5.386719 3.414062 5.875 2.699219 6.65625 2.0625 C 6.769531 2.046875 6.882812 2.035156 7 2.023438 Z M 8 2.023438 C 8.132812 2.035156 8.261719 2.054688 8.394531 2.074219 C 9.167969 2.707031 9.652344 3.414062 9.964844 4.144531 C 9.304688 4.597656 8.652344 4.875 8 4.964844 Z M 4.679688 2.773438 C 4.519531 3.019531 4.378906 3.269531 4.257812 3.523438 C 4.164062 3.441406 4.070312 3.359375 3.976562 3.269531 C 4.195312 3.085938 4.433594 2.921875 4.679688 2.773438 Z M 10.375 2.8125 C 10.605469 2.949219 10.824219 3.105469 11.027344 3.273438 C 10.941406 3.355469 10.855469 3.433594 10.769531 3.511719 C 10.65625 3.273438 10.527344 3.039062 10.375 2.8125 Z M 3.269531 3.980469 C 3.472656 4.167969 3.679688 4.34375 3.882812 4.507812 C 3.617188 5.382812 3.539062 6.238281 3.511719 7 L 2.023438 7 C 2.128906 5.847656 2.578125 4.808594 3.269531 3.980469 Z M 11.734375 3.984375 C 12.421875 4.8125 12.871094 5.851562 12.976562 7 L 11.519531 7 C 11.496094 6.238281 11.417969 5.378906 11.15625 4.5 C 11.347656 4.339844 11.542969 4.167969 11.734375 3.984375 Z M 4.75 5.125 C 5.507812 5.597656 6.257812 5.878906 7 5.96875 L 7 7 L 4.515625 7 C 4.539062 6.398438 4.59375 5.761719 4.75 5.125 Z M 10.289062 5.132812 C 10.441406 5.765625 10.5 6.402344 10.519531 7 L 8 7 L 8 5.972656 C 8.796875 5.886719 9.558594 5.59375 10.289062 5.132812 Z M 10.289062 5.132812 "/>
<path style=" stroke:none;fill-rule:nonzero;fill:rgb(18.039216%,20.392157%,20.392157%);fill-opacity:1;" d="M 2.375 8.992188 C 1.15625 9.003906 0.167969 10.167969 0.417969 11.394531 L 0.429688 11.457031 L 0.449219 11.511719 C 2.5 16.191406 12.5 16.203125 14.546875 11.511719 L 14.566406 11.457031 L 14.578125 11.394531 C 14.84375 10.113281 13.757812 8.902344 12.464844 9 L 11 9 C 9.90625 9 9 9.90625 9 11 L 9 12.792969 L 8.921875 12.8125 C 7.992188 13.0625 7.007812 13.0625 6.074219 12.8125 L 6 12.792969 L 6 11 C 6 9.90625 5.09375 9 4 9 L 2.519531 9 C 2.472656 8.996094 2.421875 8.992188 2.375 8.992188 Z M 2.429688 11 L 4 11 L 4 12.308594 C 3.277344 12.171875 2.703125 11.671875 2.425781 11 Z M 12.574219 11 C 12.296875 11.671875 11.722656 12.171875 11 12.304688 L 11 11 Z M 12.574219 11 "/>
</g>
</svg>
